!!!!SEGMENT: pl-kk--kk-i-315--011_palestrina-giovanni-pierluigi-da--sicut-lilium-inter-spinas.krn
!!!cenid: 16xx:1107
!!!COM: Palestrina, Giovanni Pierluigi da
!!!COM-rismID: pe1904
!!!CDT: ~1525-1594/02/02
!!!CNT: Italian
!!!OTL: Sicut lilium inter spinas
!!!PDT:
!!!AGN: Sacred
!!!YEC: Copyright 2022 Narodowy Instytut Fryderyka Chopina (https://polishscores.org)
!!!YEM: License CC-BY-4.0 (https://creativecommons.org/licenses/by/4.0)
!!!SMS-siglum: PL-Kk
!!!SMS-shelfmark: Kk.I.315
!!!SMS-shelfwork: 011 W
!!!SMS-variant:
!!!SMS-altvar:
!!!NIFC-rismSourceID: 1001146217
!!!NIFC-rismChildID: 1001147059
!!!NIFC-islandoraID: pl-kk:5289
!!!URL-pdf-islandora: https://repozytorium.nifc.pl/islandora/object/pl-kk%3A5289/datastream/PDF/view
!!!URL-scan: https://polish.musicsources.pl/pl/lokalizacje/galeria/rekopisy/5934 @EN{Scan on Polish Music Sources Website} @PL{Skany w portalu Dziedzictwo Muzyki Polskiej w otwartym dostępie}
!!!IIIF:
!!!ONB-nifc: UWAGA: motety w zbiorze: 1. Osculetur me, 2. Trahe me post curremus, 3. Nigra sum sed formosa, 4. Vineam meam, 5. Si ignoras te o pulchra, 6. Pulchrae sunt genae tuae, 7. Fasciculus myrrhae, 8. Ecce tu pulcher es, 9. Tota pulchra es amica mea, 10. Vulnerasti cor meum, 11. Sicut lilium inter spinas, 12. Introduxit me rex, 13. Laeva ejus, 14. Vox dilecti mei
!!!AIN: 1 alto
!!!key:
**kern	**text
*staff1	*
*Ialto	*
*I"[Alto]	*
*I'[A]	*
*clefC2	*
*k[]	*
*C:	*
*M2/1	*
*met(C|)	*
=1-	=1-
!LO:TX:a:t=P:problem=inicjał S przed kluczem	!
00r	.
=2-	=2-
.	.
=3-	=3-
00r	.
=4-	=4-
.	.
=5-	=5-
0rf	.
=6-	=6-
1rf	.
1g	Si-
=7-	=7-
1a	-cut
!LO:TX:a:t=P:problem=2\middle&colon; global	!
2.cc\	li-
!LO:TX:a:t=P:problem=4\middle or left&colon; global	!
4cc\	-li-
=8-	=8-
2b,<\	-um
1cc	in-
2b\	-ter
=9-	=9-
1a	spi-
4g\	-nas,
4a\	.
4b\	.
4g\	.
!LO:LB:g=original	!
=10-	=10-
2a\	in-
2b\	-ter
2.a\	spi-
4b\	-nas
=11-	=11-
1cc,<	.
2b\	spi-
4a\	.
4g\	.
=12-	=12-
2a\	.
2b\	.
1cc,<	-nas
=13-	=13-
1g	sic
2a\	a-
1cc\	-mi-
=14-	=14-
.	.
2b\	-ca
!LO:LB:g=original	!
1.a	me-
=15-	=15-
.	.
2g\	.
1f	-a
=16-	=16-
2rd	.
2cc\	sic
2b\	a-
1a\	-mi-
=17-	=17-
.	.
2g\	-ca
1a	me-
=18-	=18-
2g\	-a
4c/	in-
4d/	.
4e\	.
4f\	.
1g\	.
=19-	=19-
.	.
2f\	-ter
2.g\	fi-
4g\	-li-
=20-	=20-
!LO:LB:g=original	!
1e,<	-as
1cc	si-
=21-	=21-
2a\	-cut
2b\	ma-
0cc	-lus
=22-	=22-
.	.
0r	.
=23-	=23-
.	.
2rd	.
2.b\	in-
=24-	=24-
.	.
4b\	-ter
2b\	li-
2a\	-gna
2b\	sil-
=25-	=25-
1cc	-va-
1a	-ru(m)
=26-	=26-
1b-X	sil-
!LO:LB:g=original	!
2a\	-va-
4g\	.
4f\	.
=27-	=27-
4e\	.
4f\	.
2.g\	.
4f\	.
2f\	.
=28-	=28-
*lig	*
1e	.
*col	*
2f\	.
*Xcol	*
*Xlig	*
2g\	.
=29-	=29-
1a	-rum
2rd	.
1a\	sic
=30-	=30-
.	.
2g\	Di-
2a\	-le-
2cc\	-ctus
=31-	=31-
1bny	me-
2a,<\	-us
!LO:LB:g=original	!
2g\	in-
=32-	=32-
2f\	-ter
2.a\	fi-
4g\	.
1g\	.
=33-	=33-
.	.
2f\	-li-
1g	-os
=34-	=34-
1r	.
2r	.
1g\	sic
=35-	=35-
.	.
2f\	di-
2g\	-le-
2b\	-ctus
=36-	=36-
1a	me-
2g,<\	-us
!LO:LB:g=original	!
2f\	in-
=37-	=37-
!LO:TX:a:t=P:problem=2/middle or right&colon; global	!
2e/	-ter
2.f\	fi-
4e\	.
2c/	.
=38-	=38-
2.d/	.
4e\	.
2f\	.
2g\	.
=39-	=39-
2a\	-li-
2f\	-os
2rd	.
1cc\	in-
=40-	=40-
.	.
*custos:a	*
2b-X\	-ter
!LO:PB:g=original	!
2a\	fi-
4g\	.
4f\	.
=41-	=41-
2b\ny	.
2a\	.
2.g\	.
4f\	-li-
=42-	=42-
2e,</	-os
2a\	sub
1a	um-
=43-	=43-
2a,<\	-bra
2g\	il-
1f	-li-
=44-	=44-
1e,<	-us
1.g	il-
=45-	=45-
.	.
1cc	-li-
2b,<\	-us
!LO:LB:g=original	!
=46-	=46-
2.b\	quem
4b\	de-
2b\	-si-
2b\	-de-
=47-	=47-
2cc\	-ra-
2cc\	-ve-
1b	-ram
=48-	=48-
2a\	se-
2a\	-di
00r	.
=49-	=49-
.	.
=50-	=50-
.	.
2.a\	quem
4a\	de-
=51-	=51-
2a\	-si-
2a\	-de-
!LO:LB:g=original	!
2g\	-ra-
2g\	-ve-
=52-	=52-
1f,<	-ram
1e	se-
=53-	=53-
1d	-di
0a	se-
=54-	=54-
.	.
1a	-di
=55-	=55-
0r	.
=56-	=56-
1r	.
1g	et
=57-	=57-
2a\	fru-
2a\	-ctus
1b	e-
=58-	=58-
2cc,<\	-jus
1cc	dul-
!LO:LB:g=original	!
1a\	-cis
=59-	=59-
.	.
2.b\	gut-
4g\	-t[u]-
2g,<\	-ri
=60-	=60-
2a\	me-
1g	.
2f\	.
=61-	=61-
1g	-o
2rd	.
2d/	gut-
=62-	=62-
2e/	-tu-
2c/	-ri
1g	me-
=63-	=63-
1g	-o
2rd	.
!LO:TX:t=P:problem=kreska pseudotaktowa	!
2c/	et
!LO:LB:g=original	!
=64-	=64-
2d/	fruc-
2d/	-tus
1e	e-
=65-	=65-
1f#X,<	-jus
0g	dul-
=66-	=66-
.	.
2e,</	-ci
2.f\ny	gut-
=67-	=67-
.	.
4f\	-tu-
2e,</	-ri
1d	me-
=68-	=68-
1c	-o
0r	.
=69-	=69-
.	.
2r	.
1g\	dul-
=70-	=70-
.	.
!LO:TX:t=P:problem=kreska pseudotaktowa	!
2f#X\	-ci
!LO:LB:g=original	!
2.g\	.
4e/	gut-
=71-	=71-
2e/	-tu-
1g	-ri
2f#X\	me-
=72-	=72-
00.g	-o.
==	==
*-	*-
!!!system-decoration: [(s1)]
!!!RDF**kern: l = terminal long
!!!RDF**kern: > = above
!!!RDF**kern: < = below
!!!EED: Antoni Szymański
!!!EEV: 2021-03-28
!!!ENC: Andrzej Gręziak
!!!END: 2021-03-22
